assets/svgs/illustration-digitized-resources.svg

<svg width="200" height="160" viewBox="0 0 200 160" fill="none" xmlns="http://www.w3.org/2000/svg" class="svg__illustration-digitized-resources">
<path d="M9.08984 113.223H190.91V131.489C190.91 135.493 187.664 138.739 183.66 138.739H115.956H83.8441H16.3398C12.3358 138.739 9.08984 135.493 9.08984 131.489V113.223Z" stroke="#0B6AB7" stroke-width="1.5" class="svg__stroke--primary-blue-03"/>
<path d="M83.791 139.489V155M116.002 139.489V155M116.002 155H135.066M116.002 155H83.791M83.791 155H65.3848" stroke="#0B6AB7" stroke-width="1.5" class="svg__stroke--primary-blue-03"/>
<path d="M14.3398 5.75H185.66C188.56 5.75 190.91 8.10051 190.91 11V113.253H9.08984V11C9.08984 8.10051 11.4403 5.75 14.3398 5.75Z" stroke="#0B6AB7" stroke-width="1.5" class="svg__stroke--primary-blue-03"/>
<path d="M185.176 19.3555L157.085 30.991L145.45 59.0816L157.085 87.1723L185.176 98.8078" stroke="#FFD600" stroke-width="1.5" class="svg__stroke--secondary-yellow-03"/>
<path d="M17.7856 10.9407H182.213C184.008 10.9407 185.463 12.3957 185.463 14.1907V103.971C185.463 105.766 184.008 107.221 182.213 107.221H17.7856C15.9907 107.221 14.5356 105.766 14.5356 103.971V14.1907C14.5356 12.3957 15.9907 10.9407 17.7856 10.9407Z" stroke="#0AA5FF" stroke-width="1.5" class="svg__stroke--default-cyan-03"/>
<path d="M99.9953 131.954L104.221 130.204L105.971 125.979L104.221 121.754L99.9953 120.003L95.7701 121.754L94.02 125.979L95.7701 130.204L99.9953 131.954Z" fill="#0AA5FF" class="svg__fill--default-cyan-03"/>
<path d="M44.4458 35.502H84.4458" stroke="#00E0E0" stroke-width="1.5" class="svg__stroke--help-green-03"/>
<path d="M44.4458 41.502H84.4458" stroke="#00E0E0" stroke-width="1.5" class="svg__stroke--help-green-03"/>
<path d="M44.4458 47.502L84.4458 47.5019" stroke="#00E0E0" stroke-width="1.5" class="svg__stroke--help-green-03"/>
<path d="M44.4458 53.502L84.4458 53.5019" stroke="#00E0E0" stroke-width="1.5" class="svg__stroke--help-green-03"/>
<path d="M44.4458 59.502L75.4405 59.502" stroke="#00E0E0" stroke-width="1.5" class="svg__stroke--help-green-03"/>
<path d="M44.4458 71.502L84.4458 71.5019" stroke="#00E0E0" stroke-width="1.5" class="svg__stroke--help-green-03"/>
<path d="M44.4458 77.502L84.4458 77.5019" stroke="#00E0E0" stroke-width="1.5" class="svg__stroke--help-green-03"/>
<path d="M44.4458 83.502L68.388 83.502" stroke="#00E0E0" stroke-width="1.5" class="svg__stroke--help-green-03"/>
<path d="M92.4458 41.502H116.446" stroke="#00E0E0" stroke-width="1.5" class="svg__stroke--help-green-03"/>
<path d="M92.4458 35.502H116.446" stroke="#00E0E0" stroke-width="1.5" class="svg__stroke--help-green-03"/>
<path d="M92.4458 47.502H105.364" stroke="#00E0E0" stroke-width="1.5" class="svg__stroke--help-green-03"/>
<path d="M92.4458 59.502L116.446 59.502" stroke="#00E0E0" stroke-width="1.5" class="svg__stroke--help-green-03"/>
<path d="M92.4458 65.502L116.446 65.502" stroke="#00E0E0" stroke-width="1.5" class="svg__stroke--help-green-03"/>
<path d="M92.4458 71.502L116.446 71.502" stroke="#00E0E0" stroke-width="1.5" class="svg__stroke--help-green-03"/>
<path d="M92.4458 77.502L116.446 77.502" stroke="#00E0E0" stroke-width="1.5" class="svg__stroke--help-green-03"/>
<path d="M92.4458 83.502L112.79 83.502" stroke="#00E0E0" stroke-width="1.5" class="svg__stroke--help-green-03"/>
</svg>

<svg width="200" height="160" viewBox="0 0 200 160" fill="none" xmlns="http://www.w3.org/2000/svg" class="svg__illustration-digitized-resources">
  <path d="M9.09 113.223h181.82v18.266a7.25 7.25 0 0 1-7.25 7.25H16.34a7.25 7.25 0 0 1-7.25-7.25v-18.266ZM83.79 139.488V155m32.212-15.512V155m0 0h19.063m-19.063 0H83.791m0 0H65.385" stroke="#0B6AB7" stroke-width="1.5" class="svg__stroke--primary-blue-03"/>
  <path d="M14.34 5.75h171.32c2.9 0 5.25 2.35 5.25 5.25v102.253H9.09V11c0-2.9 2.35-5.25 5.25-5.25Z" stroke="#0B6AB7" stroke-width="1.5" class="svg__stroke--primary-blue-03"/>
  <path d="m185.176 19.355-28.091 11.636-11.636 28.09 11.636 28.091 28.091 11.636" stroke="#FFD600" stroke-width="1.5" class="svg__stroke--secondary-yellow-03"/>
  <path d="M17.786 10.94h164.428a3.25 3.25 0 0 1 3.25 3.25v89.781a3.25 3.25 0 0 1-3.25 3.25H17.786a3.25 3.25 0 0 1-3.25-3.25v-89.78a3.25 3.25 0 0 1 3.25-3.25Z" stroke="#0AA5FF" stroke-width="1.5" class="svg__stroke--default-cyan-03"/>
  <path d="m99.995 131.954 4.226-1.75 1.75-4.225-1.75-4.225-4.226-1.751-4.225 1.751-1.75 4.225 1.75 4.225 4.225 1.75Z" fill="#0AA5FF" class="svg__fill--default-cyan-03"/>
  <path d="M44.446 35.502h40M44.446 41.502h40M44.446 47.502h40M44.446 53.502h40M44.446 59.502H75.44M44.446 71.502h40M44.446 77.502h40M44.446 83.502h23.942M92.446 41.502h24M92.446 35.502h24M92.446 47.502h12.918M92.446 59.502h24M92.446 65.502h24M92.446 71.502h24M92.446 77.502h24M92.446 83.502h20.344" stroke="#00E0E0" stroke-width="1.5" class="svg__stroke--help-green-03"/>
</svg>
